icon-themes/sifr_svg/cmd/lc_numberliststyle.svg

<svg viewBox="0 0 24 24" xmlns="http://www.w3.org/2000/svg"><path d="m5 2c0 1.1-.9 2-2 2v2h2v5h2v-9zm6 1v2h11v-2zm0 4v2h7v-2zm-6 5c-1.66 0-3 1.34-3 3h2c0-.55.45-1 1-1s1 .45 1 1c0 .28-.06.42-.18.57l-3.82 4.79v1.64h6v-2h-3.2l2.5-3.2c.3214145-.3.7-.85.7-1.8 0-1.66-1.34-3-3-3zm6 2v2h11v-2zm0 4v2h5v-2z" fill="#555753"/></svg>

<svg xmlns="http://www.w3.org/2000/svg" viewBox="0 0 24 24">
  <path
     style="fill:#555753"
     d="M 5 2 C 5 3.1 4.1 4 3 4 L 3 6 L 5 6 L 5 11 L 7 11 L 7 2 L 5 2 z M 11 3 L 11 5 L 22 5 L 22 3 L 11 3 z M 11 7 L 11 9 L 18 9 L 18 7 L 11 7 z M 5 12 C 3.34 12 2 13.34 2 15 L 4 15 C 4 14.45 4.45 14 5 14 C 5.55 14 6 14.45 6 15 C 6 15.28 5.94 15.42 5.82 15.57 L 2 20.36 L 2 22 L 8 22 L 8 20 L 4.8 20 L 7.3 16.8 C 7.6214145 16.5 8 15.95 8 15 C 8 13.34 6.66 12 5 12 z M 11 14 L 11 16 L 22 16 L 22 14 L 11 14 z M 11 18 L 11 20 L 16 20 L 16 18 L 11 18 z "
     />
</svg>
